ES1T1/13/aimg/b2.svg

<svg clip-rule="evenodd" fill-rule="evenodd" stroke-linejoin="round" stroke-miterlimit="2" viewBox="0 0 179 182" xmlns="http://www.w3.org/2000/svg" xmlns:xlink="http://www.w3.org/1999/xlink"><linearGradient id="a" gradientTransform="matrix(1 0 0 -1 0 .000002)" gradientUnits="userSpaceOnUse" x1="0" x2="1" y1="0" y2="0"><stop offset="0" stop-color="#9c54a1"/><stop offset="1" stop-color="#8f3895"/></linearGradient><linearGradient id="b" gradientTransform="matrix(1 0 0 -1 0 .000002)" gradientUnits="userSpaceOnUse" x1="0" x2="1" y1="0" y2="0"><stop offset="0" stop-color="#c65ba2"/><stop offset="1" stop-color="#a865a9"/></linearGradient><linearGradient id="c" gradientTransform="matrix(1 0 0 -1 0 .000015)" gradientUnits="userSpaceOnUse" x1="0" x2="1" y1="0" y2="0"><stop offset="0" stop-color="#e8a8cb"/><stop offset="1" stop-color="#9c54a1"/></linearGradient><linearGradient id="d" gradientTransform="matrix(1 0 0 -1 0 -.000024)" gradientUnits="userSpaceOnUse" x1="0" x2="1" y1="0" y2="0"><stop offset="0" stop-color="#a762a8"/><stop offset="1" stop-color="#8f3895"/></linearGradient><linearGradient id="e" gradientTransform="matrix(1 0 0 -1 0 -.000024)" gradientUnits="userSpaceOnUse" x1="0" x2="1" y1="0" y2="0"><stop offset="0" stop-color="#d6e1e2"/><stop offset="1" stop-color="#a8bfbd"/></linearGradient><linearGradient id="f" gradientTransform="matrix(1 0 0 -1 0 .000071)" gradientUnits="userSpaceOnUse" x1="0" x2="1" y1="0" y2="0"><stop offset="0" stop-color="#fff"/><stop offset="1" stop-color="#dde6e6"/></linearGradient><g fill-rule="nonzero"><path d="m.089.023c.008-.007.017-.013.025-.019-.015-.008-.027-.018-.037-.027-.049-.046-.076-.115-.076-.195 0-.143.084-.237.226-.252.138-.015.238-.029.297-.038.049-.007.069-.01.087-.01.224 0 .387.172.387.41 0 .078-.021.16-.059.238.039.043.061.1.061.166 0 .129-.097.222-.231.222h-.522c-.119 0-.247-.074-.247-.283 0-.087.032-.163.089-.212z" fill="url(#a)" transform="matrix(0 171.478 171.478 0 89.408 9.876)"/><path d="m.089.023c.008-.007.017-.013.025-.019-.015-.008-.027-.018-.037-.027-.049-.046-.076-.115-.076-.195 0-.143.084-.237.226-.252.138-.015.238-.029.297-.038.049-.007.069-.01.087-.01.224 0 .387.172.387.41 0 .078-.021.16-.059.238.039.043.061.1.061.166 0 .129-.097.222-.231.222h-.522c-.119 0-.247-.074-.247-.283 0-.087.032-.163.089-.212z" fill="url(#b)" transform="matrix(0 171.479 171.479 0 89.408 .391)"/><path d="m.088.028c.011-.009.022-.017.033-.024-.018-.009-.033-.021-.045-.032-.049-.045-.075-.113-.075-.192 0-.142.083-.235.223-.25.141-.015.241-.029.302-.038.048-.008.068-.011.086-.011.224 0 .386.173.386.41 0 .079-.021.162-.061.241.04.043.063.101.063.167 0 .127-.096.22-.228.22h-.528c-.118 0-.244-.074-.244-.281 0-.087.031-.162.088-.21zm.425-.02s-.023.001-.023.001l.025.004c-.001-.002-.002-.004-.002-.005z" fill="url(#c)" transform="matrix(0 169.583 169.583 0 89.403 .391)"/><path d="m.186.121.449.07c.027-.058.04-.11.04-.155 0-.094-.057-.187-.171-.179l-.349.026c-.104.008-.154-.067-.154-.171 0-.091.034-.161.154-.173.3-.032.46-.063.492-.063.221 0 .35.175.35.381 0 .121-.052.254-.141.369.111.022.144.094.144.165 0 .082-.059.133-.144.133h-.691c-.126 0-.165-.093-.165-.213 0-.122.072-.208.186-.19z" fill="url(#d)" transform="matrix(0 129.738 129.738 0 89.412 25.059)"/><g fill="url(#e)"><path d="m.186.121.449.07c.027-.058.04-.11.04-.155 0-.094-.057-.187-.171-.179l-.348.026c-.105.008-.155-.067-.155-.171 0-.091.034-.161.155-.173.299-.032.459-.063.491-.063.221 0 .35.175.35.381 0 .121-.052.254-.141.369.111.022.144.094.144.165 0 .082-.059.133-.144.133h-.691c-.125 0-.165-.093-.165-.213 0-.122.072-.208.186-.19z" transform="matrix(0 129.744 129.744 0 89.412 22.2)"/><path d="m.186.121.449.07c.027-.058.04-.11.04-.155 0-.094-.057-.187-.171-.179l-.348.026c-.105.008-.155-.067-.155-.171 0-.091.034-.161.155-.173.299-.032.459-.063.491-.063.221 0 .35.175.35.381 0 .121-.052.254-.141.369.111.022.144.094.144.165 0 .082-.059.133-.144.133h-.691c-.125 0-.165-.093-.165-.213 0-.122.072-.208.186-.19z" transform="matrix(0 129.738 129.738 0 89.412 21.255)"/><path d="m.186.121.449.07c.027-.058.04-.11.04-.155 0-.094-.057-.187-.171-.179l-.348.026c-.105.008-.155-.067-.155-.171 0-.091.034-.161.155-.173.299-.032.459-.063.491-.063.221 0 .35.175.35.381 0 .121-.052.254-.141.369.111.022.144.094.144.165 0 .082-.059.133-.144.133h-.691c-.125 0-.165-.093-.165-.213 0-.122.072-.208.186-.19z" transform="matrix(0 129.732 129.732 0 89.412 20.31)"/><path d="m.186.121.449.07c.027-.058.04-.11.04-.155 0-.094-.057-.187-.171-.179l-.348.026c-.105.008-.155-.067-.155-.171 0-.091.034-.161.155-.173.299-.032.459-.063.491-.063.221 0 .35.175.35.381 0 .121-.052.254-.141.369.111.022.144.094.144.165 0 .082-.059.133-.144.133h-.69c-.126 0-.166-.093-.166-.213 0-.122.072-.208.186-.19z" transform="matrix(0 129.744 129.744 0 89.412 19.354)"/><path d="m.186.121.449.07c.027-.058.04-.11.04-.155 0-.094-.057-.187-.171-.179l-.348.026c-.105.008-.155-.067-.155-.171 0-.091.034-.161.155-.173.299-.032.459-.063.491-.063.221 0 .35.175.35.381 0 .121-.052.254-.141.369.111.022.144.094.144.165 0 .082-.059.133-.144.133h-.69c-.126 0-.166-.093-.166-.213 0-.122.072-.208.186-.19z" transform="matrix(0 129.75 129.75 0 89.412 18.403)"/><path d="m.186.121.449.07c.027-.058.04-.11.04-.155 0-.094-.057-.187-.171-.179l-.348.026c-.105.008-.155-.067-.155-.171 0-.091.034-.161.155-.173.299-.032.459-.063.491-.063.221 0 .35.175.35.381 0 .121-.052.254-.141.369.111.022.144.094.144.165 0 .082-.059.133-.144.133h-.691c-.125 0-.165-.093-.165-.213 0-.122.072-.208.186-.19z" transform="matrix(0 129.738 129.738 0 89.412 17.458)"/><path d="m.186.121.449.07c.027-.058.04-.11.04-.155 0-.094-.057-.187-.171-.179l-.348.026c-.105.008-.155-.067-.155-.171 0-.091.034-.161.155-.173.299-.032.459-.063.491-.063.221 0 .35.175.35.381 0 .121-.052.254-.141.369.111.022.144.094.144.165 0 .082-.059.133-.144.133h-.691c-.125 0-.165-.093-.165-.213 0-.122.072-.208.186-.19z" transform="matrix(0 129.739 129.739 0 89.412 16.513)"/><path d="m.186.121.449.07c.027-.058.04-.11.04-.155 0-.094-.057-.187-.17-.179l-.349.026c-.105.008-.155-.067-.155-.171 0-.091.034-.161.155-.173.299-.032.459-.063.491-.063.221 0 .35.175.35.381 0 .121-.052.254-.141.369.111.022.144.094.144.165 0 .082-.059.133-.144.133h-.691c-.125 0-.165-.093-.165-.213 0-.122.072-.208.186-.19z" transform="matrix(0 129.744 129.744 0 89.412 15.562)"/><path d="m.186.121.449.07c.027-.058.04-.11.04-.155 0-.094-.057-.187-.171-.179l-.349.026c-.104.008-.154-.067-.154-.171 0-.091.034-.161.154-.173.3-.032.46-.063.492-.063.221 0 .35.175.35.381 0 .121-.052.254-.141.369.111.022.144.094.144.165 0 .082-.059.133-.144.133h-.691c-.125 0-.165-.093-.165-.213 0-.122.072-.208.186-.19z" transform="matrix(0 129.739 129.739 0 89.412 14.617)"/><path d="m.186.121.449.07c.027-.058.04-.11.04-.155 0-.094-.057-.187-.171-.179l-.348.026c-.105.008-.155-.067-.155-.171 0-.091.034-.161.155-.173.299-.032.459-.063.491-.063.221 0 .35.175.35.381 0 .121-.052.254-.141.369.111.022.144.094.144.165 0 .082-.059.133-.144.133h-.691c-.125 0-.165-.093-.165-.213 0-.122.072-.208.186-.19z" transform="matrix(0 129.738 129.738 0 89.412 13.673)"/></g><path d="m0-20.838v21.507c0 2.633-1.598 4.48-4.146 4.48-2.212 0-4.451-1.035-5.151-4.48-3.558 2.771-7.702 4.395-11.484 4.395-6.413 0-11.87-4.034-11.87-10.919 0-.979.978-5.966 1.96-15.29.392-3.752 2.55-4.816 5.404-4.816 3.22 0 5.572 1.567 5.32 4.816l-.814 10.865c-.251 3.528 2.664 5.32 5.575 5.32 1.399 0 3.026-.422 4.817-1.26l-2.158-13.971c-.557-3.558 2.102-5.796 5.91-5.796 3.723 0 6.637 1.231 6.637 5.149" fill="#fff" transform="matrix(4.16667 0 0 4.16667 157.433 121.954)"/><path d="m.055.186c.028-.024.065-.033.107-.026l.477.073c.013.002.027-.005.032-.017.031-.065.046-.125.046-.178 0-.069-.025-.132-.069-.172-.038-.036-.089-.053-.146-.049l-.37.028c-.037.003-.067-.006-.089-.026-.027-.025-.042-.069-.042-.125 0-.099.04-.143.136-.153.2-.021.342-.042.427-.055.045-.006.081-.012.092-.012.234 0 .341.194.341.374 0 .12-.052.256-.143.373-.005.005-.007.012-.007.019 0 .003.001.007.002.011.004.01.012.017.023.019.085.017.128.066.128.145 0 .068-.047.111-.122.111h-.733c-.062 0-.145-.021-.145-.196 0-.063.019-.114.055-.144z" fill="url(#f)" transform="matrix(0 122.162 122.162 0 89.406 19.354)"/></g></svg>

<?xml version="1.0" encoding="UTF-8" standalone="no"?>
<!DOCTYPE svg PUBLIC "-//W3C//DTD SVG 1.1//EN" "http://www.w3.org/Graphics/SVG/1.1/DTD/svg11.dtd">
<svg width="100%" height="100%" viewBox="0 0 179 182" version="1.1" xmlns="http://www.w3.org/2000/svg" xmlns:xlink="http://www.w3.org/1999/xlink" xml:space="preserve" xmlns:serif="http://www.serif.com/" style="fill-rule:evenodd;clip-rule:evenodd;stroke-linejoin:round;stroke-miterlimit:2;">
    <g transform="matrix(1,0,0,1,-693,-873)">
        <g>
            <g transform="matrix(0,171.478,171.478,0,782.408,882.876)">
                <path d="M0.089,0.023C0.097,0.016 0.106,0.01 0.114,0.004C0.099,-0.004 0.087,-0.014 0.077,-0.023C0.028,-0.069 0.001,-0.138 0.001,-0.218C0.001,-0.361 0.085,-0.455 0.227,-0.47C0.365,-0.485 0.465,-0.499 0.524,-0.508C0.573,-0.515 0.593,-0.518 0.611,-0.518C0.835,-0.518 0.998,-0.346 0.998,-0.108C0.998,-0.03 0.977,0.052 0.939,0.13C0.978,0.173 1,0.23 1,0.296C1,0.425 0.903,0.518 0.769,0.518L0.247,0.518C0.128,0.518 0,0.444 0,0.235C0,0.148 0.032,0.072 0.089,0.023Z" style="fill:url(#_Linear1);fill-rule:nonzero;"/>
            </g>
            <g transform="matrix(0,171.479,171.479,0,782.408,873.391)">
                <path d="M0.089,0.023C0.097,0.016 0.106,0.01 0.114,0.004C0.099,-0.004 0.087,-0.014 0.077,-0.023C0.028,-0.069 0.001,-0.138 0.001,-0.218C0.001,-0.361 0.085,-0.455 0.227,-0.47C0.365,-0.485 0.465,-0.499 0.524,-0.508C0.573,-0.515 0.593,-0.518 0.611,-0.518C0.835,-0.518 0.998,-0.346 0.998,-0.108C0.998,-0.03 0.977,0.052 0.939,0.13C0.978,0.173 1,0.23 1,0.296C1,0.425 0.903,0.518 0.769,0.518L0.247,0.518C0.128,0.518 0,0.444 0,0.235C0,0.148 0.032,0.072 0.089,0.023Z" style="fill:url(#_Linear2);fill-rule:nonzero;"/>
            </g>
            <g transform="matrix(0,169.583,169.583,0,782.403,873.391)">
                <path d="M0.088,0.028C0.099,0.019 0.11,0.011 0.121,0.004C0.103,-0.005 0.088,-0.017 0.076,-0.028C0.027,-0.073 0.001,-0.141 0.001,-0.22C0.001,-0.362 0.084,-0.455 0.224,-0.47C0.365,-0.485 0.465,-0.499 0.526,-0.508C0.574,-0.516 0.594,-0.519 0.612,-0.519C0.836,-0.519 0.998,-0.346 0.998,-0.109C0.998,-0.03 0.977,0.053 0.937,0.132C0.977,0.175 1,0.233 1,0.299C1,0.426 0.904,0.519 0.772,0.519L0.244,0.519C0.126,0.519 0,0.445 0,0.238C0,0.151 0.031,0.076 0.088,0.028ZM0.513,0.008C0.513,0.008 0.49,0.009 0.49,0.009L0.515,0.013C0.514,0.011 0.513,0.009 0.513,0.008Z" style="fill:url(#_Linear3);fill-rule:nonzero;"/>
            </g>
            <g transform="matrix(0,129.738,129.738,0,782.412,898.059)">
                <path d="M0.186,0.121L0.635,0.191C0.662,0.133 0.675,0.081 0.675,0.036C0.675,-0.058 0.618,-0.151 0.504,-0.143L0.155,-0.117C0.051,-0.109 0.001,-0.184 0.001,-0.288C0.001,-0.379 0.035,-0.449 0.155,-0.461C0.455,-0.493 0.615,-0.524 0.647,-0.524C0.868,-0.524 0.997,-0.349 0.997,-0.143C0.997,-0.022 0.945,0.111 0.856,0.226C0.967,0.248 1,0.32 1,0.391C1,0.473 0.941,0.524 0.856,0.524L0.165,0.524C0.039,0.524 0,0.431 0,0.311C0,0.189 0.072,0.103 0.186,0.121Z" style="fill:url(#_Linear4);fill-rule:nonzero;"/>
            </g>
            <g transform="matrix(0,129.744,129.744,0,782.412,895.2)">
                <path d="M0.186,0.121L0.635,0.191C0.662,0.133 0.675,0.081 0.675,0.036C0.675,-0.058 0.618,-0.151 0.504,-0.143L0.156,-0.117C0.051,-0.109 0.001,-0.184 0.001,-0.288C0.001,-0.379 0.035,-0.449 0.156,-0.461C0.455,-0.493 0.615,-0.524 0.647,-0.524C0.868,-0.524 0.997,-0.349 0.997,-0.143C0.997,-0.022 0.945,0.111 0.856,0.226C0.967,0.248 1,0.32 1,0.391C1,0.473 0.941,0.524 0.856,0.524L0.165,0.524C0.04,0.524 0,0.431 0,0.311C0,0.189 0.072,0.103 0.186,0.121Z" style="fill:url(#_Linear5);fill-rule:nonzero;"/>
            </g>
            <g transform="matrix(0,129.738,129.738,0,782.412,894.255)">
                <path d="M0.186,0.121L0.635,0.191C0.662,0.133 0.675,0.081 0.675,0.036C0.675,-0.058 0.618,-0.151 0.504,-0.143L0.156,-0.117C0.051,-0.109 0.001,-0.184 0.001,-0.288C0.001,-0.379 0.035,-0.449 0.156,-0.461C0.455,-0.493 0.615,-0.524 0.647,-0.524C0.868,-0.524 0.997,-0.349 0.997,-0.143C0.997,-0.022 0.945,0.111 0.856,0.226C0.967,0.248 1,0.32 1,0.391C1,0.473 0.941,0.524 0.856,0.524L0.165,0.524C0.04,0.524 0,0.431 0,0.311C0,0.189 0.072,0.103 0.186,0.121Z" style="fill:url(#_Linear6);fill-rule:nonzero;"/>
            </g>
            <g transform="matrix(0,129.732,129.732,0,782.412,893.31)">
                <path d="M0.186,0.121L0.635,0.191C0.662,0.133 0.675,0.081 0.675,0.036C0.675,-0.058 0.618,-0.151 0.504,-0.143L0.156,-0.117C0.051,-0.109 0.001,-0.184 0.001,-0.288C0.001,-0.379 0.035,-0.449 0.156,-0.461C0.455,-0.493 0.615,-0.524 0.647,-0.524C0.868,-0.524 0.997,-0.349 0.997,-0.143C0.997,-0.022 0.945,0.111 0.856,0.226C0.967,0.248 1,0.32 1,0.391C1,0.473 0.941,0.524 0.856,0.524L0.165,0.524C0.04,0.524 0,0.431 0,0.311C0,0.189 0.072,0.103 0.186,0.121Z" style="fill:url(#_Linear7);fill-rule:nonzero;"/>
            </g>
            <g transform="matrix(0,129.744,129.744,0,782.412,892.354)">
                <path d="M0.186,0.121L0.635,0.191C0.662,0.133 0.675,0.081 0.675,0.036C0.675,-0.058 0.618,-0.151 0.504,-0.143L0.156,-0.117C0.051,-0.109 0.001,-0.184 0.001,-0.288C0.001,-0.379 0.035,-0.449 0.156,-0.461C0.455,-0.493 0.615,-0.524 0.647,-0.524C0.868,-0.524 0.997,-0.349 0.997,-0.143C0.997,-0.022 0.945,0.111 0.856,0.226C0.967,0.248 1,0.32 1,0.391C1,0.473 0.941,0.524 0.856,0.524L0.166,0.524C0.04,0.524 0,0.431 0,0.311C0,0.189 0.072,0.103 0.186,0.121Z" style="fill:url(#_Linear8);fill-rule:nonzero;"/>
            </g>
            <g transform="matrix(0,129.75,129.75,0,782.412,891.403)">
                <path d="M0.186,0.121L0.635,0.191C0.662,0.133 0.675,0.081 0.675,0.036C0.675,-0.058 0.618,-0.151 0.504,-0.143L0.156,-0.117C0.051,-0.109 0.001,-0.184 0.001,-0.288C0.001,-0.379 0.035,-0.449 0.156,-0.461C0.455,-0.493 0.615,-0.524 0.647,-0.524C0.868,-0.524 0.997,-0.349 0.997,-0.143C0.997,-0.022 0.945,0.111 0.856,0.226C0.967,0.248 1,0.32 1,0.391C1,0.473 0.941,0.524 0.856,0.524L0.166,0.524C0.04,0.524 0,0.431 0,0.311C0,0.189 0.072,0.103 0.186,0.121Z" style="fill:url(#_Linear9);fill-rule:nonzero;"/>
            </g>
            <g transform="matrix(0,129.738,129.738,0,782.412,890.458)">
                <path d="M0.186,0.121L0.635,0.191C0.662,0.133 0.675,0.081 0.675,0.036C0.675,-0.058 0.618,-0.151 0.504,-0.143L0.156,-0.117C0.051,-0.109 0.001,-0.184 0.001,-0.288C0.001,-0.379 0.035,-0.449 0.156,-0.461C0.455,-0.493 0.615,-0.524 0.647,-0.524C0.868,-0.524 0.997,-0.349 0.997,-0.143C0.997,-0.022 0.945,0.111 0.856,0.226C0.967,0.248 1,0.32 1,0.391C1,0.473 0.941,0.524 0.856,0.524L0.165,0.524C0.04,0.524 0,0.431 0,0.311C0,0.189 0.072,0.103 0.186,0.121Z" style="fill:url(#_Linear10);fill-rule:nonzero;"/>
            </g>
            <g transform="matrix(0,129.739,129.739,0,782.412,889.513)">
                <path d="M0.186,0.121L0.635,0.191C0.662,0.133 0.675,0.081 0.675,0.036C0.675,-0.058 0.618,-0.151 0.504,-0.143L0.156,-0.117C0.051,-0.109 0.001,-0.184 0.001,-0.288C0.001,-0.379 0.035,-0.449 0.156,-0.461C0.455,-0.493 0.615,-0.524 0.647,-0.524C0.868,-0.524 0.997,-0.349 0.997,-0.143C0.997,-0.022 0.945,0.111 0.856,0.226C0.967,0.248 1,0.32 1,0.391C1,0.473 0.941,0.524 0.856,0.524L0.165,0.524C0.04,0.524 0,0.431 0,0.311C0,0.189 0.072,0.103 0.186,0.121Z" style="fill:url(#_Linear11);fill-rule:nonzero;"/>
            </g>
            <g transform="matrix(0,129.744,129.744,0,782.412,888.562)">
                <path d="M0.186,0.121L0.635,0.191C0.662,0.133 0.675,0.081 0.675,0.036C0.675,-0.058 0.618,-0.151 0.505,-0.143L0.156,-0.117C0.051,-0.109 0.001,-0.184 0.001,-0.288C0.001,-0.379 0.035,-0.449 0.156,-0.461C0.455,-0.493 0.615,-0.524 0.647,-0.524C0.868,-0.524 0.997,-0.349 0.997,-0.143C0.997,-0.022 0.945,0.111 0.856,0.226C0.967,0.248 1,0.32 1,0.391C1,0.473 0.941,0.524 0.856,0.524L0.165,0.524C0.04,0.524 0,0.431 0,0.311C0,0.189 0.072,0.103 0.186,0.121Z" style="fill:url(#_Linear12);fill-rule:nonzero;"/>
            </g>
            <g transform="matrix(0,129.739,129.739,0,782.412,887.617)">
                <path d="M0.186,0.121L0.635,0.191C0.662,0.133 0.675,0.081 0.675,0.036C0.675,-0.058 0.618,-0.151 0.504,-0.143L0.155,-0.117C0.051,-0.109 0.001,-0.184 0.001,-0.288C0.001,-0.379 0.035,-0.449 0.155,-0.461C0.455,-0.493 0.615,-0.524 0.647,-0.524C0.868,-0.524 0.997,-0.349 0.997,-0.143C0.997,-0.022 0.945,0.111 0.856,0.226C0.967,0.248 1,0.32 1,0.391C1,0.473 0.941,0.524 0.856,0.524L0.165,0.524C0.04,0.524 0,0.431 0,0.311C0,0.189 0.072,0.103 0.186,0.121Z" style="fill:url(#_Linear13);fill-rule:nonzero;"/>
            </g>
            <g transform="matrix(0,129.738,129.738,0,782.412,886.673)">
                <path d="M0.186,0.121L0.635,0.191C0.662,0.133 0.675,0.081 0.675,0.036C0.675,-0.058 0.618,-0.151 0.504,-0.143L0.156,-0.117C0.051,-0.109 0.001,-0.184 0.001,-0.288C0.001,-0.379 0.035,-0.449 0.156,-0.461C0.455,-0.493 0.615,-0.524 0.647,-0.524C0.868,-0.524 0.997,-0.349 0.997,-0.143C0.997,-0.022 0.945,0.111 0.856,0.226C0.967,0.248 1,0.32 1,0.391C1,0.473 0.941,0.524 0.856,0.524L0.165,0.524C0.04,0.524 0,0.431 0,0.311C0,0.189 0.072,0.103 0.186,0.121Z" style="fill:url(#_Linear14);fill-rule:nonzero;"/>
            </g>
            <g transform="matrix(4.16667,0,0,4.16667,850.433,994.954)">
                <path d="M0,-20.838L0,0.669C0,3.302 -1.598,5.149 -4.146,5.149C-6.358,5.149 -8.597,4.114 -9.297,0.669C-12.855,3.44 -16.999,5.064 -20.781,5.064C-27.194,5.064 -32.651,1.03 -32.651,-5.855C-32.651,-6.834 -31.673,-11.821 -30.691,-21.145C-30.299,-24.897 -28.141,-25.961 -25.287,-25.961C-22.067,-25.961 -19.715,-24.394 -19.967,-21.145L-20.781,-10.28C-21.032,-6.752 -18.117,-4.96 -15.206,-4.96C-13.807,-4.96 -12.18,-5.382 -10.389,-6.22L-12.547,-20.191C-13.104,-23.749 -10.445,-25.987 -6.637,-25.987C-2.914,-25.987 0,-24.756 0,-20.838" style="fill:white;fill-rule:nonzero;"/>
            </g>
            <g transform="matrix(0,122.162,122.162,0,782.406,892.354)">
                <path d="M0.055,0.186C0.083,0.162 0.12,0.153 0.162,0.16L0.639,0.233C0.652,0.235 0.666,0.228 0.671,0.216C0.702,0.151 0.717,0.091 0.717,0.038C0.717,-0.031 0.692,-0.094 0.648,-0.134C0.61,-0.17 0.559,-0.187 0.502,-0.183L0.132,-0.155C0.095,-0.152 0.065,-0.161 0.043,-0.181C0.016,-0.206 0.001,-0.25 0.001,-0.306C0.001,-0.405 0.041,-0.449 0.137,-0.459C0.337,-0.48 0.479,-0.501 0.564,-0.514C0.609,-0.52 0.645,-0.526 0.656,-0.526C0.89,-0.526 0.997,-0.332 0.997,-0.152C0.997,-0.032 0.945,0.104 0.854,0.221C0.849,0.226 0.847,0.233 0.847,0.24C0.847,0.243 0.848,0.247 0.849,0.251C0.853,0.261 0.861,0.268 0.872,0.27C0.957,0.287 1,0.336 1,0.415C1,0.483 0.953,0.526 0.878,0.526L0.145,0.526C0.083,0.526 0,0.505 0,0.33C0,0.267 0.019,0.216 0.055,0.186Z" style="fill:url(#_Linear15);fill-rule:nonzero;"/>
            </g>
        </g>
    </g>
    <defs>
        <linearGradient id="_Linear1" x1="0" y1="0" x2="1" y2="0" gradientUnits="userSpaceOnUse" gradientTransform="matrix(1,0,0,-1,0,2.2549e-06)"><stop offset="0" style="stop-color:rgb(156,84,161);stop-opacity:1"/><stop offset="1" style="stop-color:rgb(143,56,149);stop-opacity:1"/></linearGradient>
        <linearGradient id="_Linear2" x1="0" y1="0" x2="1" y2="0" gradientUnits="userSpaceOnUse" gradientTransform="matrix(1,0,0,-1,0,2.25489e-06)"><stop offset="0" style="stop-color:rgb(198,91,162);stop-opacity:1"/><stop offset="1" style="stop-color:rgb(168,101,169);stop-opacity:1"/></linearGradient>
        <linearGradient id="_Linear3" x1="0" y1="0" x2="1" y2="0" gradientUnits="userSpaceOnUse" gradientTransform="matrix(1,0,0,-1,0,1.47273e-05)"><stop offset="0" style="stop-color:rgb(232,168,203);stop-opacity:1"/><stop offset="1" style="stop-color:rgb(156,84,161);stop-opacity:1"/></linearGradient>
        <linearGradient id="_Linear4" x1="0" y1="0" x2="1" y2="0" gradientUnits="userSpaceOnUse" gradientTransform="matrix(1,0,0,-1,0,-2.40356e-05)"><stop offset="0" style="stop-color:rgb(167,98,168);stop-opacity:1"/><stop offset="1" style="stop-color:rgb(143,56,149);stop-opacity:1"/></linearGradient>
        <linearGradient id="_Linear5" x1="0" y1="0" x2="1" y2="0" gradientUnits="userSpaceOnUse" gradientTransform="matrix(1,0,0,-1,0,-2.40345e-05)"><stop offset="0" style="stop-color:rgb(214,225,226);stop-opacity:1"/><stop offset="0" style="stop-color:rgb(214,225,226);stop-opacity:1"/><stop offset="1" style="stop-color:rgb(168,191,189);stop-opacity:1"/></linearGradient>
        <linearGradient id="_Linear6" x1="0" y1="0" x2="1" y2="0" gradientUnits="userSpaceOnUse" gradientTransform="matrix(1,0,0,-1,0,-2.40356e-05)"><stop offset="0" style="stop-color:rgb(214,225,226);stop-opacity:1"/><stop offset="0" style="stop-color:rgb(214,225,226);stop-opacity:1"/><stop offset="1" style="stop-color:rgb(168,191,189);stop-opacity:1"/></linearGradient>
        <linearGradient id="_Linear7" x1="0" y1="0" x2="1" y2="0" gradientUnits="userSpaceOnUse" gradientTransform="matrix(1,0,0,-1,0,-2.40367e-05)"><stop offset="0" style="stop-color:rgb(214,225,226);stop-opacity:1"/><stop offset="0" style="stop-color:rgb(214,225,226);stop-opacity:1"/><stop offset="1" style="stop-color:rgb(168,191,189);stop-opacity:1"/></linearGradient>
        <linearGradient id="_Linear8" x1="0" y1="0" x2="1" y2="0" gradientUnits="userSpaceOnUse" gradientTransform="matrix(1,0,0,-1,0,-2.40345e-05)"><stop offset="0" style="stop-color:rgb(214,225,226);stop-opacity:1"/><stop offset="0" style="stop-color:rgb(214,225,226);stop-opacity:1"/><stop offset="1" style="stop-color:rgb(168,191,189);stop-opacity:1"/></linearGradient>
        <linearGradient id="_Linear9" x1="0" y1="0" x2="1" y2="0" gradientUnits="userSpaceOnUse" gradientTransform="matrix(1,0,0,-1,0,-2.40333e-05)"><stop offset="0" style="stop-color:rgb(214,225,226);stop-opacity:1"/><stop offset="0" style="stop-color:rgb(214,225,226);stop-opacity:1"/><stop offset="1" style="stop-color:rgb(168,191,189);stop-opacity:1"/></linearGradient>
        <linearGradient id="_Linear10" x1="0" y1="0" x2="1" y2="0" gradientUnits="userSpaceOnUse" gradientTransform="matrix(1,0,0,-1,0,-2.40356e-05)"><stop offset="0" style="stop-color:rgb(214,225,226);stop-opacity:1"/><stop offset="0" style="stop-color:rgb(214,225,226);stop-opacity:1"/><stop offset="1" style="stop-color:rgb(168,191,189);stop-opacity:1"/></linearGradient>
        <linearGradient id="_Linear11" x1="0" y1="0" x2="1" y2="0" gradientUnits="userSpaceOnUse" gradientTransform="matrix(1,0,0,-1,0,-2.40355e-05)"><stop offset="0" style="stop-color:rgb(214,225,226);stop-opacity:1"/><stop offset="0" style="stop-color:rgb(214,225,226);stop-opacity:1"/><stop offset="1" style="stop-color:rgb(168,191,189);stop-opacity:1"/></linearGradient>
        <linearGradient id="_Linear12" x1="0" y1="0" x2="1" y2="0" gradientUnits="userSpaceOnUse" gradientTransform="matrix(1,0,0,-1,0,-2.40345e-05)"><stop offset="0" style="stop-color:rgb(214,225,226);stop-opacity:1"/><stop offset="0" style="stop-color:rgb(214,225,226);stop-opacity:1"/><stop offset="1" style="stop-color:rgb(168,191,189);stop-opacity:1"/></linearGradient>
        <linearGradient id="_Linear13" x1="0" y1="0" x2="1" y2="0" gradientUnits="userSpaceOnUse" gradientTransform="matrix(1,0,0,-1,0,-2.40355e-05)"><stop offset="0" style="stop-color:rgb(214,225,226);stop-opacity:1"/><stop offset="0" style="stop-color:rgb(214,225,226);stop-opacity:1"/><stop offset="1" style="stop-color:rgb(168,191,189);stop-opacity:1"/></linearGradient>
        <linearGradient id="_Linear14" x1="0" y1="0" x2="1" y2="0" gradientUnits="userSpaceOnUse" gradientTransform="matrix(1,0,0,-1,0,-2.40356e-05)"><stop offset="0" style="stop-color:rgb(214,225,226);stop-opacity:1"/><stop offset="0" style="stop-color:rgb(214,225,226);stop-opacity:1"/><stop offset="1" style="stop-color:rgb(168,191,189);stop-opacity:1"/></linearGradient>
        <linearGradient id="_Linear15" x1="0" y1="0" x2="1" y2="0" gradientUnits="userSpaceOnUse" gradientTransform="matrix(1,0,0,-1,0,7.09236e-05)"><stop offset="0" style="stop-color:white;stop-opacity:1"/><stop offset="0" style="stop-color:white;stop-opacity:1"/><stop offset="1" style="stop-color:rgb(221,230,230);stop-opacity:1"/><stop offset="1" style="stop-color:rgb(221,230,230);stop-opacity:1"/></linearGradient>
    </defs>
</svg>
